Newaita-dark/apps/64/tranquil.svg

<svg height="64pt" viewBox="0 0 64 64" width="64pt" xmlns="http://www.w3.org/2000/svg" xmlns:xlink="http://www.w3.org/1999/xlink"><linearGradient id="a"><stop offset="0" stop-opacity=".313725"/><stop offset=".222222" stop-opacity=".27451"/><stop offset="1" stop-opacity="0"/></linearGradient><radialGradient id="b" cx="450.90894" cy="189.57936" gradientTransform="matrix(.00000035 -.156265 -.281277 -.0000002 89.046304 127.190664)" gradientUnits="userSpaceOnUse" r="21.166656" xlink:href="#a"/><radialGradient id="c" cx="450.90894" cy="189.57936" gradientTransform="matrix(-.00000035 .156265 .281277 .0000002 -25.540241 -15.054962)" gradientUnits="userSpaceOnUse" r="21.166656" xlink:href="#a"/><radialGradient id="d" cx="450.90894" cy="189.57936" gradientTransform="matrix(-.00000035 -.156265 .281277 -.0000002 -25.540241 127.190664)" gradientUnits="userSpaceOnUse" r="21.166656" xlink:href="#a"/><radialGradient id="e" cx="450.90894" cy="189.57936" gradientTransform="matrix(.00000035 .156265 -.281277 .0000002 89.0463 -15.054964)" gradientUnits="userSpaceOnUse" r="21.166656" xlink:href="#a"/><linearGradient id="f" gradientTransform="matrix(.0267201 0 0 .125012 24.930772 26.877567)" gradientUnits="userSpaceOnUse" x1="255.32306" x2="255.32304" y1="233.5" y2="254.66666"><stop offset="0" stop-opacity=".27451"/><stop offset="1" stop-opacity="0"/></linearGradient><linearGradient id="g" gradientUnits="userSpaceOnUse" x1="254" x2="254" y1="-168.66667" y2="233.5"><stop offset="0" stop-color="#ba68c8"/><stop offset="1" stop-color="#ab47bc"/></linearGradient><linearGradient id="h" gradientUnits="userSpaceOnUse" x1="31.753048" x2="31.753048" y1="56.067868" y2="5.79220824996"><stop offset="0" stop-color="#ef9a9a"/><stop offset="1" stop-color="#ffcdd2"/></linearGradient><linearGradient id="i" gradientUnits="userSpaceOnUse" x1="31.753056" x2="31.753056" y1="56.06789909502" y2="5.79222477969"><stop offset="0" stop-color="#ec407a"/><stop offset="1" stop-color="#f06292"/></linearGradient><linearGradient id="j" gradientUnits="userSpaceOnUse" x1="31.753056" x2="31.753056" y1="56.06789909502" y2="5.79222477969"><stop offset="0" stop-color="#795548"/><stop offset="1" stop-color="#8d6e63"/></linearGradient><path d="m36.382812 56.066406h5.292969v-2.644531h-5.292969zm0 0" fill="url(#b)"/><path d="m27.121094 56.066406h-5.289063v2.648438h5.289063zm0 0" fill="url(#c)"/><path d="m27.121094 56.066406h-5.289063v-2.644531h5.289063zm0 0" fill="url(#d)"/><path d="m36.382812 56.066406h5.292969v2.648438h-5.292969zm0 0" fill="url(#e)"/><path d="m27.121094 55.40625h9.261718v3.308594h-9.261718zm0 0" fill="url(#f)"/><path d="m254.006994-168.660675c111.051895 0 201.074548 90.022653 201.074548 201.074548s-90.022653 201.074548-201.074548 201.074548c-111.051896 0-201.105796-90.022653-201.105796-201.074548s90.0539-201.074548 201.105796-201.074548zm0 0" fill="url(#g)" stroke="#333" stroke-linecap="round" stroke-width="3" transform="matrix(.125012 0 0 .125012 0 26.877566)"/><path d="m31.753906 16.375c8.035156 0 14.550782 6.515625 14.550782 14.554688 0 8.039062-6.515626 14.554687-14.550782 14.554687-8.039062 0-14.554687-6.515625-14.554687-14.554687 0-8.039063 6.515625-14.554688 14.554687-14.554688zm0 0" fill="url(#h)"/><path d="m31.753906 16.375c-8.0625 0-14.554687 6.492188-14.554687 14.554688 0 .167968.003906.332031.007812.496093.261719-7.832031 6.648438-14.058593 14.546875-14.058593 7.894532 0 14.285156 6.226562 14.542969 14.058593.007813-.164062.007813-.328125.007813-.496093 0-8.0625-6.488282-14.554688-14.550782-14.554688zm0 0" fill="#fff" fill-opacity=".392157"/><path d="m254.006994-84.012509c64.275112 0 116.395134 52.120023 116.395134 116.426382s-52.120022 116.426382-116.395134 116.426382c-64.30636 0-116.426382-52.120023-116.426382-116.426382s52.120022-116.426382 116.426382-116.426382zm0 0" fill="none" stroke="#212121" stroke-linecap="round" stroke-width="3" transform="matrix(.125012 0 0 .125012 0 26.877566)"/><path d="m19.464844 40.234375 8.320312 11.652344s4.464844 1.941406 8.832032 3.714843c8.476562-1.648437 15.402343-7.53125 18.507812-15.367187zm0 0" fill="url(#i)"/><path d="m19.464844 40.234375.625.871094h34.667968c.128907-.289063.25-.578125.367188-.871094zm0 0" fill="#fff" fill-opacity=".392157"/><path d="m588.487117 1216.419286 251.550784 352.289197s134.987111 58.695183 267.021748 112.312111c256.274743-49.837761 465.664199-227.694794 559.552872-464.601308zm0 0" fill="none" stroke="#212121" stroke-width="12.765609" transform="scale(.0330761)"/><path d="m7.761719 23.371094c-.746094 2.382812-1.148438 4.921875-1.148438 7.558594 0 13.925781 11.214844 25.136718 25.140625 25.136718 6.171875 0 11.8125-2.203125 16.175782-5.867187-2.109376-.257813-3.789063-.71875-8.617188-.71875-2.703125 0-9.839844 2.40625-12.5-2.660157-2.070312-4.011718-5.828125-7.222656-8.910156-8.023437-2.617188-.675781-3.335938-3.207031-3.546875-6.25-.253907-3.207031-2.828125-3.292969-4.472657-5.363281-1.097656-1.429688-1.382812-2.96875-2.121093-3.8125zm0 0" fill="url(#j)"/><path d="m31.753906 56.066406c-13.925781 0-25.140625-11.210937-25.140625-25.136718 0-.082032.003907-.164063.003907-.246094.128906 13.8125 11.292968 24.890625 25.136718 24.890625s25.003906-11.078125 25.136719-24.890625v.246094c0 13.925781-11.210937 25.136718-25.136719 25.136718zm0 0" fill-opacity=".196078"/><path d="m31.753906 5.792969c-13.925781 0-25.140625 11.210937-25.140625 25.136719 0 .082031.003907.164062.003907.246093.128906-13.8125 11.292968-24.890625 25.136718-24.890625s25.003906 11.078125 25.136719 24.890625c0-.082031 0-.164062 0-.246093 0-13.925782-11.210937-25.136719-25.136719-25.136719zm0 0" fill="#fff" fill-opacity=".392157"/><path d="m7.761719 23.371094c-.746094 2.382812-1.148438 4.921875-1.148438 7.558594 0 .136718.003907.269531.003907.402343.042968-2.488281.4375-4.886719 1.144531-7.144531.738281.84375 1.023437 2.382812 2.121093 3.8125 1.644532 2.070312 4.21875 2.15625 4.472657 5.363281.210937 3.039063.929687 5.574219 3.546875 6.25 3.082031.800781 6.839844 4.011719 8.910156 8.023438 2.660156 5.066406 9.796875 2.660156 12.5 2.660156 4.15625 0 5.976562.339844 7.75.597656.292969-.222656.585938-.457031.867188-.695312-2.109376-.257813-3.789063-.71875-8.617188-.71875-2.703125 0-9.839844 2.40625-12.5-2.660157-2.070312-4.011718-5.828125-7.222656-8.910156-8.023437-2.617188-.675781-3.335938-3.207031-3.546875-6.25-.253907-3.207031-2.828125-3.292969-4.472657-5.363281-1.097656-1.429688-1.382812-2.96875-2.121093-3.8125zm0 0" fill="#fff" fill-opacity=".392157"/><path d="m31.753906 5.605469c-14.027344 0-25.328125 11.296875-25.328125 25.324219 0 14.027343 11.300781 25.324218 25.328125 25.324218s25.324219-11.296875 25.324219-25.324218c0-14.027344-11.296875-25.324219-25.324219-25.324219zm0 .375c13.824219 0 24.949219 11.125 24.949219 24.949219 0 13.824218-11.125 24.949218-24.949219 24.949218-13.828125 0-24.953125-11.125-24.953125-24.949218 0-13.824219 11.125-24.949219 24.953125-24.949219zm0 0" fill="#212121"/><path d="m7.9375 22.332031c-.425781 1.347657-.742188 2.75-.941406 4.1875.191406-1.074219.445312-2.125.765625-3.148437.738281.84375 1.023437 2.382812 2.121093 3.8125 1.644532 2.070312 4.21875 2.15625 4.472657 5.363281.210937 3.042969.929687 5.574219 3.546875 6.25 3.082031.800781 6.839844 4.011719 8.910156 8.023437 2.660156 5.066407 9.796875 2.660157 12.5 2.660157 4.828125 0 6.507812.460937 8.617188.71875-.019532.015625-.035157.03125-.054688.046875.367188-.273438.726562-.554688 1.078125-.847656-2.15625-.261719-3.871094-.726563-8.800781-.726563-2.761719 0-10.046875 2.429687-12.761719-2.683594-2.113281-4.046875-5.949219-7.285156-9.097656-8.09375-2.671875-.679687-3.40625-3.238281-3.621094-6.304687-.261719-3.238282-2.890625-3.324219-4.570313-5.410156-1.121093-1.445313-1.410156-3-2.164062-3.847657zm0 0" fill-opacity=".235294"/><path d="m234.662633 706.586077c-22.556901 72.040365-34.721094 148.804689-34.721094 228.521487 0 421.022792 339.062114 759.966806 760.084905 759.966806 186.596357 0 357.131255-66.607813 489.047793-177.384637-63.773438-7.794532-114.555991-21.730209-260.526305-21.730209-81.724481 0-297.49128 72.748959-377.916672-80.425392-62.592448-121.287631-176.203648-218.364976-269.383727-242.575263-79.126303-20.43112-100.856512-96.959246-107.233856-188.958336-7.676432-96.959246-85.503647-99.557423-135.223309-162.149872-33.185807-43.224219-41.807031-89.755209-64.127735-115.264584zm0 0" fill="none" stroke="#212121" stroke-width="12.765609" transform="scale(.0330761)"/><path d="m19.972656 39.5c.21875.300781.449219.59375.691406.875h22.179688c.238281-.28125.46875-.574219.6875-.875zm0 0" fill-opacity=".235294"/></svg>

<?xml version="1.0" encoding="UTF-8"?>
<svg xmlns="http://www.w3.org/2000/svg" xmlns:xlink="http://www.w3.org/1999/xlink" width="64pt" height="64pt" viewBox="0 0 64 64" version="1.1">
<defs>
<radialGradient id="radial0" gradientUnits="userSpaceOnUse" cx="450.90894" cy="189.57936" fx="450.90894" fy="189.57936" r="21.166656" gradientTransform="matrix(0.000000348341,-0.156265,-0.281277,-0.000000203077,89.046304,127.190664)">
<stop offset="0" style="stop-color:rgb(0%,0%,0%);stop-opacity:0.313725;"/>
<stop offset="0.222222" style="stop-color:rgb(0%,0%,0%);stop-opacity:0.27451;"/>
<stop offset="1" style="stop-color:rgb(0%,0%,0%);stop-opacity:0;"/>
</radialGradient>
<radialGradient id="radial1" gradientUnits="userSpaceOnUse" cx="450.90894" cy="189.57936" fx="450.90894" fy="189.57936" r="21.166656" gradientTransform="matrix(-0.000000348341,0.156265,0.281277,0.000000203077,-25.540241,-15.054962)">
<stop offset="0" style="stop-color:rgb(0%,0%,0%);stop-opacity:0.313725;"/>
<stop offset="0.222222" style="stop-color:rgb(0%,0%,0%);stop-opacity:0.27451;"/>
<stop offset="1" style="stop-color:rgb(0%,0%,0%);stop-opacity:0;"/>
</radialGradient>
<radialGradient id="radial2" gradientUnits="userSpaceOnUse" cx="450.90894" cy="189.57936" fx="450.90894" fy="189.57936" r="21.166656" gradientTransform="matrix(-0.000000348341,-0.156265,0.281277,-0.000000203077,-25.540241,127.190664)">
<stop offset="0" style="stop-color:rgb(0%,0%,0%);stop-opacity:0.313725;"/>
<stop offset="0.222222" style="stop-color:rgb(0%,0%,0%);stop-opacity:0.27451;"/>
<stop offset="1" style="stop-color:rgb(0%,0%,0%);stop-opacity:0;"/>
</radialGradient>
<radialGradient id="radial3" gradientUnits="userSpaceOnUse" cx="450.90894" cy="189.57936" fx="450.90894" fy="189.57936" r="21.166656" gradientTransform="matrix(0.000000348341,0.156265,-0.281277,0.000000203077,89.0463,-15.054964)">
<stop offset="0" style="stop-color:rgb(0%,0%,0%);stop-opacity:0.313725;"/>
<stop offset="0.222222" style="stop-color:rgb(0%,0%,0%);stop-opacity:0.27451;"/>
<stop offset="1" style="stop-color:rgb(0%,0%,0%);stop-opacity:0;"/>
</radialGradient>
<linearGradient id="linear0" gradientUnits="userSpaceOnUse" x1="255.32306" y1="233.5" x2="255.32304" y2="254.66666" gradientTransform="matrix(0.0267201,0,0,0.125012,24.930772,26.877567)">
<stop offset="0" style="stop-color:rgb(0%,0%,0%);stop-opacity:0.27451;"/>
<stop offset="1" style="stop-color:rgb(0%,0%,0%);stop-opacity:0;"/>
</linearGradient>
<linearGradient id="linear1" gradientUnits="userSpaceOnUse" x1="254" y1="-168.66667" x2="254" y2="233.5" >
<stop offset="0" style="stop-color:rgb(72.941176%,40.784314%,78.431373%);stop-opacity:1;"/>
<stop offset="1" style="stop-color:rgb(67.058824%,27.843137%,73.72549%);stop-opacity:1;"/>
</linearGradient>
<linearGradient id="linear2" gradientUnits="userSpaceOnUse" x1="254" y1="233.5" x2="254" y2="-168.66667" gradientTransform="matrix(0.125012,0,0,0.125012,0,26.877566)">
<stop offset="0" style="stop-color:rgb(93.72549%,60.392157%,60.392157%);stop-opacity:1;"/>
<stop offset="1" style="stop-color:rgb(100%,80.392157%,82.352941%);stop-opacity:1;"/>
</linearGradient>
<linearGradient id="linear3" gradientUnits="userSpaceOnUse" x1="960" y1="1695.1182" x2="960" y2="175.11813" gradientTransform="matrix(0.0330761,0,0,0.0330761,0,0)">
<stop offset="0" style="stop-color:rgb(92.54902%,25.098039%,47.843137%);stop-opacity:1;"/>
<stop offset="1" style="stop-color:rgb(94.117647%,38.431373%,57.254902%);stop-opacity:1;"/>
</linearGradient>
<linearGradient id="linear4" gradientUnits="userSpaceOnUse" x1="960" y1="1695.1182" x2="960" y2="175.11813" gradientTransform="matrix(0.0330761,0,0,0.0330761,0,0)">
<stop offset="0" style="stop-color:rgb(47.45098%,33.333333%,28.235294%);stop-opacity:1;"/>
<stop offset="1" style="stop-color:rgb(55.294118%,43.137255%,38.823529%);stop-opacity:1;"/>
</linearGradient>
</defs>
<g id="surface1">
<path style=" stroke:none;fill-rule:nonzero;fill:url(#radial0);" d="M 36.382812 56.066406 L 41.675781 56.066406 L 41.675781 53.421875 L 36.382812 53.421875 Z M 36.382812 56.066406 "/>
<path style=" stroke:none;fill-rule:nonzero;fill:url(#radial1);" d="M 27.121094 56.066406 L 21.832031 56.066406 L 21.832031 58.714844 L 27.121094 58.714844 Z M 27.121094 56.066406 "/>
<path style=" stroke:none;fill-rule:nonzero;fill:url(#radial2);" d="M 27.121094 56.066406 L 21.832031 56.066406 L 21.832031 53.421875 L 27.121094 53.421875 Z M 27.121094 56.066406 "/>
<path style=" stroke:none;fill-rule:nonzero;fill:url(#radial3);" d="M 36.382812 56.066406 L 41.675781 56.066406 L 41.675781 58.714844 L 36.382812 58.714844 Z M 36.382812 56.066406 "/>
<path style=" stroke:none;fill-rule:nonzero;fill:url(#linear0);" d="M 27.121094 55.40625 L 36.382812 55.40625 L 36.382812 58.714844 L 27.121094 58.714844 Z M 27.121094 55.40625 "/>
<path style="fill-rule:nonzero;fill:url(#linear1);stroke-width:3;stroke-linecap:round;stroke-linejoin:miter;stroke:rgb(20%,20%,20%);stroke-opacity:1;stroke-miterlimit:4;" d="M 254.006994 -168.660675 C 365.058889 -168.660675 455.081542 -78.638022 455.081542 32.413873 C 455.081542 143.465768 365.058889 233.488421 254.006994 233.488421 C 142.955098 233.488421 52.901198 143.465768 52.901198 32.413873 C 52.901198 -78.638022 142.955098 -168.660675 254.006994 -168.660675 Z M 254.006994 -168.660675 " transform="matrix(0.125012,0,0,0.125012,0,26.877566)"/>
<path style=" stroke:none;fill-rule:nonzero;fill:url(#linear2);" d="M 31.753906 16.375 C 39.789062 16.375 46.304688 22.890625 46.304688 30.929688 C 46.304688 38.96875 39.789062 45.484375 31.753906 45.484375 C 23.714844 45.484375 17.199219 38.96875 17.199219 30.929688 C 17.199219 22.890625 23.714844 16.375 31.753906 16.375 Z M 31.753906 16.375 "/>
<path style=" stroke:none;fill-rule:nonzero;fill:rgb(100%,100%,100%);fill-opacity:0.392157;" d="M 31.753906 16.375 C 23.691406 16.375 17.199219 22.867188 17.199219 30.929688 C 17.199219 31.097656 17.203125 31.261719 17.207031 31.425781 C 17.46875 23.59375 23.855469 17.367188 31.753906 17.367188 C 39.648438 17.367188 46.039062 23.59375 46.296875 31.425781 C 46.304688 31.261719 46.304688 31.097656 46.304688 30.929688 C 46.304688 22.867188 39.816406 16.375 31.753906 16.375 Z M 31.753906 16.375 "/>
<path style="fill:none;stroke-width:3;stroke-linecap:round;stroke-linejoin:miter;stroke:rgb(12.941176%,12.941176%,12.941176%);stroke-opacity:1;stroke-miterlimit:4;" d="M 254.006994 -84.012509 C 318.282106 -84.012509 370.402128 -31.892486 370.402128 32.413873 C 370.402128 96.720232 318.282106 148.840255 254.006994 148.840255 C 189.700634 148.840255 137.580612 96.720232 137.580612 32.413873 C 137.580612 -31.892486 189.700634 -84.012509 254.006994 -84.012509 Z M 254.006994 -84.012509 " transform="matrix(0.125012,0,0,0.125012,0,26.877566)"/>
<path style=" stroke:none;fill-rule:nonzero;fill:url(#linear3);" d="M 19.464844 40.234375 L 27.785156 51.886719 C 27.785156 51.886719 32.25 53.828125 36.617188 55.601562 C 45.09375 53.953125 52.019531 48.070312 55.125 40.234375 Z M 19.464844 40.234375 "/>
<path style=" stroke:none;fill-rule:nonzero;fill:rgb(100%,100%,100%);fill-opacity:0.392157;" d="M 19.464844 40.234375 L 20.089844 41.105469 L 54.757812 41.105469 C 54.886719 40.816406 55.007812 40.527344 55.125 40.234375 Z M 19.464844 40.234375 "/>
<path style="fill:none;stroke-width:12.765609;stroke-linecap:butt;stroke-linejoin:miter;stroke:rgb(12.941176%,12.941176%,12.941176%);stroke-opacity:1;stroke-miterlimit:4;" d="M 588.487117 1216.419286 L 840.037901 1568.708483 C 840.037901 1568.708483 975.025012 1627.403666 1107.059649 1681.020594 C 1363.334392 1631.182833 1572.723848 1453.3258 1666.612521 1216.419286 Z M 588.487117 1216.419286 " transform="matrix(0.0330761,0,0,0.0330761,0,0)"/>
<path style=" stroke:none;fill-rule:nonzero;fill:url(#linear4);" d="M 7.761719 23.371094 C 7.015625 25.753906 6.613281 28.292969 6.613281 30.929688 C 6.613281 44.855469 17.828125 56.066406 31.753906 56.066406 C 37.925781 56.066406 43.566406 53.863281 47.929688 50.199219 C 45.820312 49.941406 44.140625 49.480469 39.3125 49.480469 C 36.609375 49.480469 29.472656 51.886719 26.8125 46.820312 C 24.742188 42.808594 20.984375 39.597656 17.902344 38.796875 C 15.285156 38.121094 14.566406 35.589844 14.355469 32.546875 C 14.101562 29.339844 11.527344 29.253906 9.882812 27.183594 C 8.785156 25.753906 8.5 24.214844 7.761719 23.371094 Z M 7.761719 23.371094 "/>
<path style=" stroke:none;fill-rule:nonzero;fill:rgb(0%,0%,0%);fill-opacity:0.196078;" d="M 31.753906 56.066406 C 17.828125 56.066406 6.613281 44.855469 6.613281 30.929688 C 6.613281 30.847656 6.617188 30.765625 6.617188 30.683594 C 6.746094 44.496094 17.910156 55.574219 31.753906 55.574219 C 45.597656 55.574219 56.757812 44.496094 56.890625 30.683594 C 56.890625 30.765625 56.890625 30.847656 56.890625 30.929688 C 56.890625 44.855469 45.679688 56.066406 31.753906 56.066406 Z M 31.753906 56.066406 "/>
<path style=" stroke:none;fill-rule:nonzero;fill:rgb(100%,100%,100%);fill-opacity:0.392157;" d="M 31.753906 5.792969 C 17.828125 5.792969 6.613281 17.003906 6.613281 30.929688 C 6.613281 31.011719 6.617188 31.09375 6.617188 31.175781 C 6.746094 17.363281 17.910156 6.285156 31.753906 6.285156 C 45.597656 6.285156 56.757812 17.363281 56.890625 31.175781 C 56.890625 31.09375 56.890625 31.011719 56.890625 30.929688 C 56.890625 17.003906 45.679688 5.792969 31.753906 5.792969 Z M 31.753906 5.792969 "/>
<path style=" stroke:none;fill-rule:nonzero;fill:rgb(100%,100%,100%);fill-opacity:0.392157;" d="M 7.761719 23.371094 C 7.015625 25.753906 6.613281 28.292969 6.613281 30.929688 C 6.613281 31.066406 6.617188 31.199219 6.617188 31.332031 C 6.660156 28.84375 7.054688 26.445312 7.761719 24.1875 C 8.5 25.03125 8.785156 26.570312 9.882812 28 C 11.527344 30.070312 14.101562 30.15625 14.355469 33.363281 C 14.566406 36.402344 15.285156 38.9375 17.902344 39.613281 C 20.984375 40.414062 24.742188 43.625 26.8125 47.636719 C 29.472656 52.703125 36.609375 50.296875 39.3125 50.296875 C 43.46875 50.296875 45.289062 50.636719 47.0625 50.894531 C 47.355469 50.671875 47.648438 50.4375 47.929688 50.199219 C 45.820312 49.941406 44.140625 49.480469 39.3125 49.480469 C 36.609375 49.480469 29.472656 51.886719 26.8125 46.820312 C 24.742188 42.808594 20.984375 39.597656 17.902344 38.796875 C 15.285156 38.121094 14.566406 35.589844 14.355469 32.546875 C 14.101562 29.339844 11.527344 29.253906 9.882812 27.183594 C 8.785156 25.753906 8.5 24.214844 7.761719 23.371094 Z M 7.761719 23.371094 "/>
<path style=" stroke:none;fill-rule:nonzero;fill:rgb(12.941176%,12.941176%,12.941176%);fill-opacity:1;" d="M 31.753906 5.605469 C 17.726562 5.605469 6.425781 16.902344 6.425781 30.929688 C 6.425781 44.957031 17.726562 56.253906 31.753906 56.253906 C 45.78125 56.253906 57.078125 44.957031 57.078125 30.929688 C 57.078125 16.902344 45.78125 5.605469 31.753906 5.605469 Z M 31.753906 5.980469 C 45.578125 5.980469 56.703125 17.105469 56.703125 30.929688 C 56.703125 44.753906 45.578125 55.878906 31.753906 55.878906 C 17.925781 55.878906 6.800781 44.753906 6.800781 30.929688 C 6.800781 17.105469 17.925781 5.980469 31.753906 5.980469 Z M 31.753906 5.980469 "/>
<path style=" stroke:none;fill-rule:nonzero;fill:rgb(0%,0%,0%);fill-opacity:0.235294;" d="M 7.9375 22.332031 C 7.511719 23.679688 7.195312 25.082031 6.996094 26.519531 C 7.1875 25.445312 7.441406 24.394531 7.761719 23.371094 C 8.5 24.214844 8.785156 25.753906 9.882812 27.183594 C 11.527344 29.253906 14.101562 29.339844 14.355469 32.546875 C 14.566406 35.589844 15.285156 38.121094 17.902344 38.796875 C 20.984375 39.597656 24.742188 42.808594 26.8125 46.820312 C 29.472656 51.886719 36.609375 49.480469 39.3125 49.480469 C 44.140625 49.480469 45.820312 49.941406 47.929688 50.199219 C 47.910156 50.214844 47.894531 50.230469 47.875 50.246094 C 48.242188 49.972656 48.601562 49.691406 48.953125 49.398438 C 46.796875 49.136719 45.082031 48.671875 40.152344 48.671875 C 37.390625 48.671875 30.105469 51.101562 27.390625 45.988281 C 25.277344 41.941406 21.441406 38.703125 18.292969 37.894531 C 15.621094 37.214844 14.886719 34.65625 14.671875 31.589844 C 14.410156 28.351562 11.78125 28.265625 10.101562 26.179688 C 8.980469 24.734375 8.691406 23.179688 7.9375 22.332031 Z M 7.9375 22.332031 "/>
<path style="fill:none;stroke-width:12.765609;stroke-linecap:butt;stroke-linejoin:miter;stroke:rgb(12.941176%,12.941176%,12.941176%);stroke-opacity:1;stroke-miterlimit:4;" d="M 234.662633 706.586077 C 212.105732 778.626442 199.941539 855.390766 199.941539 935.107564 C 199.941539 1356.130356 539.003653 1695.07437 960.026444 1695.07437 C 1146.622801 1695.07437 1317.157699 1628.466557 1449.074237 1517.689733 C 1385.300799 1509.895201 1334.518246 1495.959524 1188.547932 1495.959524 C 1106.823451 1495.959524 891.056652 1568.708483 810.63126 1415.534132 C 748.038812 1294.246501 634.427612 1197.169156 541.247533 1172.958869 C 462.12123 1152.527749 440.391021 1075.999623 434.013677 984.000533 C 426.337245 887.041287 348.51003 884.44311 298.790368 821.850661 C 265.604561 778.626442 256.983337 732.095452 234.662633 706.586077 Z M 234.662633 706.586077 " transform="matrix(0.0330761,0,0,0.0330761,0,0)"/>
<path style=" stroke:none;fill-rule:nonzero;fill:rgb(0%,0%,0%);fill-opacity:0.235294;" d="M 19.972656 39.5 C 20.191406 39.800781 20.421875 40.09375 20.664062 40.375 L 42.84375 40.375 C 43.082031 40.09375 43.3125 39.800781 43.53125 39.5 Z M 19.972656 39.5 "/>
</g>
</svg>
